X: 1
T: Beare Island
M: 4/4
L: 1/8
R: reel
K: Edor
EB^GB AGEc|dBcA Beec|d2 fd AFDF|GEFD EEEF|
GEEF GFGA|B2 A=c Bdef|g2 fg effe|1 dBAF E3 D:|2 dBAF E3 A||
Beef gefd|B2 AG FDDA|Beef gefd|Be^df e2 ef|
edBc d3c|BcdB AFDF|GBBB AFDF|1 GEED E3 A:|2 GEED E3 D||
